X: 1925
T: Hundred Pipers
B: begged borrowed and stolen
B: ralph
M:6/8
L:1/8
R: jig
Q: 3/8=100
K:Gmajor
V:1 
G/A|:B2 D D>ED|E2 G G2 e|d2 B B>AG|A2 A A>Bc|
 B2 D D>ED|E2 G G2 e|d2 B ABA|G3 G3/2:|
 |:d2 d d>Bd|e2 g g2 e|d2 B B>AG|A2 A ABc|
 d2 d d>ef|g2 g g>fe|d2 B ABA|G3 G3/2:|
% abcbook-tune_id 62828a3a5f77fe7082dd41b8
% abcbook-boost 0
% abcbook-tablature 
% abcbook-transpose 
% abcbook-lastupdated 1665417103861
% abcbook-soundfonts 
% abcbook-repeats 3
% abc-sessionorg_id 1232
% abc-sessionorg_setting 0
% abc-sessionorg_setting_id 24519
% abc-boost 0

